X:53
T:Brays of Angus. JJo2.053, The
Z:vmp.Ruairidh Greig 2014 www.village-music-project.org.uk
B:J.Johnson Choice Collection Vol 2 after c1750
M:C
L:1/4
Q:1/2=100
K:Dm
D/D/DFD|F2c2|GFED|CDEC|
D/D/DFD|F2d2|cAcE|D/D/DD2:|
|:d>edA|d2f2|g/f/e/d/cd|c>dec|
dedA|d2f2|g/f/e/d/ ^c/d/e|d2A2|
d>edA|d2f2|g/f/e/d/cd|c>dec|
dfcd|AcGB|F>GEd|D/D/DD2:|

